icons/timer-flash-fill.svg

<svg xmlns="http://www.w3.org/2000/svg" width="24" height="24" fill="none"><g clip-path="url(#a)"><g><path fill="#121212" d="M6.382 5.968C7.97575 4.69107 9.95781 3.99674 12 4C14.125 4 16.078 4.736 17.618 5.968L19.071 4.515L20.485 5.929L19.032 7.382C20.0897 8.70615 20.7521 10.302 20.9428 11.986C21.1336 13.6699 20.845 15.3735 20.1103 16.9007C19.3756 18.4279 18.2246 19.7167 16.7898 20.6186C15.355 21.5205 13.6947 21.999 12 21.999C10.3053 21.999 8.64498 21.5205 7.2102 20.6186C5.77541 19.7167 4.62443 18.4279 3.88973 16.9007C3.15502 15.3735 2.86644 13.6699 3.0572 11.986C3.24796 10.302 3.9103 8.70615 4.96801 7.382L3.51501 5.93L4.92901 4.516L6.382 5.969V5.968ZM13 12V7.495L8.00001 14H11V18.5L16 12H13ZM8.00001 1H16V3H8.00001V1Z"/></g></g><defs><clipPath id="a"><rect width="24" height="24" fill="white"/></clipPath></defs></svg>

<svg width="24" height="24" fill="none" xmlns="http://www.w3.org/2000/svg"><g clip-path="url(#a)"><path d="M6.382 5.968A8.962 8.962 0 0 1 12 4c2.125 0 4.078.736 5.618 1.968l1.453-1.453 1.414 1.414-1.453 1.453a9 9 0 1 1-14.064 0L3.515 5.93l1.414-1.414 1.453 1.453v-.001ZM13 12V7.495L8 14h3v4.5l5-6.5h-3ZM8 1h8v2H8V1Z" /></g><defs><clipPath id="a"><path fill="#fff" d="M0 0h24v24H0z"/></clipPath></defs></svg>
